src/assets/svg-icons/email-light-icon.svg

<svg width="27" height="30" viewBox="0 0 27 30" fill="none" xmlns="http://www.w3.org/2000/svg">
<g clip-path="url(#clip0_2905_12947)">
<path d="M15.248 18.2518C14.5979 18.7328 13.8429 18.9871 13.0644 18.9871C12.2859 18.9871 11.5308 18.7328 10.8808 18.2518L0.17397 10.3293C0.114568 10.2854 0.0566973 10.2396 0 10.1924V23.1743C0 24.6627 1.08827 25.8439 2.40532 25.8439H23.7233C25.0644 25.8439 26.1287 24.6361 26.1287 23.1743V10.1924C26.0719 10.2396 26.0139 10.2856 25.9543 10.3296L15.248 18.2518Z" fill="#F5F5F5"/>
<path d="M1.0232 8.91537L11.73 16.8379C12.1353 17.1378 12.5998 17.2878 13.0643 17.2878C13.5289 17.2878 13.9934 17.1378 14.3987 16.8379L25.1055 8.91537C25.7462 8.44157 26.1287 7.6486 26.1287 6.79276C26.1287 5.32118 25.05 4.12402 23.7242 4.12402H2.4045C1.07868 4.12408 0 5.32124 0 6.79418C0 7.6486 0.382541 8.44157 1.0232 8.91537Z" fill="#F5F5F5"/>
</g>
<defs>
<clipPath id="clip0_2905_12947">
<rect width="26.1287" height="29" fill="white" transform="translate(0 0.484375)"/>
</clipPath>
</defs>
</svg>

<svg xmlns="http://www.w3.org/2000/svg" width="27" height="30" fill="none" viewBox="0 0 27 30"><g fill="#F5F5F5" clip-path="url(#a)"><path d="M15.248 18.252a3.655 3.655 0 0 1-2.184.735 3.654 3.654 0 0 1-2.183-.735L.174 10.329A3.83 3.83 0 0 1 0 10.192v12.982c0 1.489 1.088 2.67 2.405 2.67h21.318c1.341 0 2.406-1.208 2.406-2.67V10.192a3.866 3.866 0 0 1-.175.138l-10.706 7.922Z"/><path d="m1.023 8.915 10.707 7.923c.405.3.87.45 1.334.45.465 0 .93-.15 1.335-.45l10.707-7.923c.64-.473 1.023-1.266 1.023-2.122 0-1.472-1.079-2.669-2.405-2.669H2.404C1.08 4.124 0 5.321 0 6.794c0 .855.383 1.648 1.023 2.121Z"/></g><defs><clipPath id="a"><path fill="#fff" d="M0 .484h26.129v29H0z"/></clipPath></defs></svg>
